symbols/web/transfer_within_a_station/materialsymbolsoutlined/transfer_within_a_station_wght300gradN25_24px.svg

<svg xmlns="http://www.w3.org/2000/svg" height="24" width="24"><path d="M9.475 5.4q-.75 0-1.275-.525-.525-.525-.525-1.275 0-.75.525-1.275.525-.525 1.275-.525.775 0 1.3.525T11.3 3.6q0 .75-.525 1.275-.525.525-1.3.525Zm-6.05 17.2 2.8-14.175-2.475 1V12.7h-1.4V8.525L7 6.575q.675-.275 1.363-.125.687.15 1.062.775l1 1.55q.65 1.05 1.75 1.75t2.45.75v1.4q-1.475-.05-2.863-.788Q10.375 11.15 9.35 9.7l-.775 3.875 2.1 2.025v7h-1.4v-5.75l-2.55-2.425-1.85 8.175Zm12.95-4.175L14.15 16.2l2.225-2.225.8.8-.875.875h5.35v1.125H16.3l.875.875Zm3 4.2-.8-.8.875-.875H14.1v-1.1h5.35l-.875-.875.8-.8L21.6 20.4Z"/></svg>

<svg xmlns="http://www.w3.org/2000/svg" height="24" width="24"><path d="M9.475 5.4Q8.725 5.4 8.2 4.875Q7.675 4.35 7.675 3.6Q7.675 2.85 8.2 2.325Q8.725 1.8 9.475 1.8Q10.25 1.8 10.775 2.325Q11.3 2.85 11.3 3.6Q11.3 4.35 10.775 4.875Q10.25 5.4 9.475 5.4ZM3.425 22.6 6.225 8.425 3.75 9.425V12.7H2.35V8.525L7 6.575Q7.675 6.3 8.363 6.45Q9.05 6.6 9.425 7.225L10.425 8.775Q11.075 9.825 12.175 10.525Q13.275 11.225 14.625 11.275V12.675Q13.15 12.625 11.762 11.887Q10.375 11.15 9.35 9.7L8.575 13.575L10.675 15.6V22.6H9.275V16.85L6.725 14.425L4.875 22.6ZM16.375 18.425 14.15 16.2 16.375 13.975 17.175 14.775 16.3 15.65H21.65V16.775H16.3L17.175 17.65ZM19.375 22.625 18.575 21.825 19.45 20.95H14.1V19.85H19.45L18.575 18.975L19.375 18.175L21.6 20.4Z"/></svg>
